X:183
T:Ristmanpolskan
R:sl\"angpolska
H:Efter Carl Ulrik Retzman (1786-1832), Lofta sn, Tjust
H:Jfr. #75
A:Sm{\aa}land
Z:id:hn-sp-183
M:3/4
L:1/16
K:Dm
D3F A2d2 f2a2 | c'2c'a b2bg a4 | f2ag eceg agab | c'2c'a b2bg a4 |
f2ag eceg a2^c2 | ^c2d2 dcec A4 | D3F A2d2 f2d2 | ^cAce e2ce d4 :|
|: D3F A2d2 f2d2 | ^c2Ac e2ec A2(3GFE | F2D2 D2F2 AFAF |
G2E2 E2FG AGFE | F2D2 D2F2 AFAF | G2E2 E2FG AGFE | D3F A2d2 f2d2 |
^cAce e2ce d4 :| [K:D] |: e2(3dcd e4 a4 | a2^ga baga e4 |
a2c'a e2e2 c3c | d2ed c2ec A4 | FAdA FAdA FAdA | GBdB GBdB GBdB |
cded cded cdec | d2d2 cdec A4 | F2D2 D3F A>FAF | G2E2 E2FG AGFE |
F2D2 D2F2 A>FAF | G2E2 E2FG AGFE | D3F A2d2 f2d2 | ^cAce e2ce d4 :|

